!!!ONB: MCCC : ICS0003_04 : Extracted Monophonic Melody
!!!COM: Saint-Saëns, Camille
!!!OPR: Album
!!!OMV: 4
!!!SCT: Op.72
!!!ODT: 1884///
**kern
*staff1
=1
*clefG2
*k[f#c#g#]
*A:
*M3/4
2.ccc#
=2
2ff#
4ee
=3
2.dd
=4
2g#
4f#
=5
8r
8B
8f#
8b
8f#
8e
=6
8r
8a
8ee
8aa
8ee
8dd
=7
8r
8dd
8aa
8ddd
8aa
8gg#
=8
8ff#
8ee
8dd#
8dd
8cc#
8b
=9
8r
8c#
8r
8cc#
8a
8c#
=10
8r
8cc#
8g#
8c#
8r
8cc#
=11
8f#
8c#
8e
8cc#
8e
8c#
=12
8e
8cc#
8cc#
8ee
4ccc#
=13
8r
8d
8r
8dd
8b
8d
=14
8r
8dd
8a
8d
8r
8dd
=15
8g#
8d#
8g#
8dd#
8g#
8d#
=16
8f#
8dd#
8dd#
8ff#
4ddd#
=17
2.eee
=18
2aa
4gg
=19
2.ee#
=20
2b
4a
=21
4r
4ee
4eee[
=22
4eee]
4aa
4gg
=23
4r
4eee#
4ee#[
=24
4ee#]
4b
4ee#[
=25
4ee#]
4ee
4ee
=26
4r
2ee[
=27
4ee]
2ee[
=28
4ee]
2ee
=29
2.ee
=30
8cc
8cc#
8dd
8b
8g#
8f#
=31
8e
8f#
8g#
8a
8b
8cc#
=32
8dd
8ee
8ff#
8gg#
8aa
8bb
=33
2.ccc#
=34
2ff#
4ee
=35
2.dd
=36
2g#
4f#
=37
8r
8B
8f#
8b
8f#
8e
=38
8r
8a
8ee
8aa
8ee
8dd
=39
8r
8dd
8aa
8ddd
8aa
8gg#
=40
8ff#
8ee
8dd#
8dd
8cc#
8b
=41
8r
8c#
8r
8cc#
8a
8c#
=42
8r
8cc#
8g#
8c#
8r
8cc#
=43
8f#
8c#
8e
8cc#
8e
8c#
=44
8e
8cc#
8cc#
8ee
4ccc#
=45
8r
8d
8r
8dd
8a#
8d
=46
8r
8dd
8a
8d
8r
8dd
=47
8g
8d
8e#
8dd
8e#
8d
=48
8e#
8dd
8dd
8ee#
8ddd
8dd
=49
4dd#
2ddd#
=50
2gg#
4ff#
=51
2.ee
=52
2a#
4g#
=53
4r
4dd#
4ddd#[
=54
4ddd#]
4gg#
4ff#
=55
4r
4eee
4ee[
=56
4ee]
4a#
4ee[
=57
4ee]
4dd#
4dd#
=58
4r
4ee#
4ff#
=59
4r
4ff#
4gg
=60
4r
4gg#
4aa
=61
4aaa#
4r
4a#
=62
2gg#
4dd
=63
2dd#
4r
=64
2.r
=65
8r
8e#
4a#
4r
=66
8r
8g
4dd#
4r
=67
8r
8g
4cc
4r
=68
8r
8a
4ee#
4r
=69
8r
8aa#
8ee#
8gg
8aa#
8gg#
=70
8r
8gg
8dd
8ee
8gg
8ee#
=71
4ee#
4eee#
8r
8g
=72
4g#
8r
8A#
8d#
8c
=73
8r
8e#
4a#
4r
=74
8r
8g
4dd#
4r
=75
8r
8g
4cc
4r
=76
8r
8a
4ee#
4r
=77
8r
8aa#
8ee#
8gg
8aa#
8gg#
=78
8r
8ccc
8gg
8aa
8ccc
8aa#
=79
4aa#
4aaa#
8r
8aa#
=80
8eee#
8bb
4ccc
8r
8cc
=81
4ccc
4cc
8r
8b
=82
2a#
4g#
=83
4cc
4c
8r
8B
=84
2A#
4G#
=85
4r
4a#
4cc#
=86
4r
4b
4cc
=87
4r
4a#
4cc#
=88
4r
4b
4cc
=89
4ccc
4cc
8r
8b
=90
2a#
4g#
=91
4cc
4c
8r
8B
=92
2A#
4G#
=93
4r
4A#
4c#
=94
4r
4B
4c
=95
4r
4c#
4e
=96
4r
4d
4d#
=97
8F#
8G
8G#
8A
8A#
8B
=98
8c
8c#
8d
8d#
8e
8e#
=99
4f#
8B
8f#
8c
8f#
=100
4e
8e#
8G#
8c#
8e#
=101
4g#
8c#
8g#
8d
8g#
=102
4f#
8g
8A#
8d#
8g
=103
4cc#
8f#
8cc#
8g
8cc#
=104
4b
8cc
8d#
8g#
8cc
=105
4dd#
8f#
8dd#
8g
8dd
=106
4cc
12c
12d#
12g
12b
12cc
12dd#
=107
4ff#
8b
8ff#
8cc
8ff#
=108
4ee
8ee#
8g#
8cc#
8ee#
=109
4gg#
8cc#
8gg#
8dd
8gg#
=110
4ff#
8gg
8a#
8dd#
8gg
=111
4ccc#
8ff#
8ccc#
8gg
8ccc#
=112
4bb
8ccc
8dd#
8gg#
8ccc
=113
4eee
8ee
8eee
8dd
8ddd
=114
8ccc
8gg
8ee
8cc
8dd
8dd#
=115
4ee
4ee
4dd
=116
8dd
8b
8dd
8cc
8f#
8a
=117
8g
8d#
8e#
8e
8B
8d
=118
8c
8B
8d
8c
8B
8d
=119
8c
8B
4d
4r
=120
8r
8g
4cc
4r
=121
8r
8a
4ee#
4r
=122
8r
8a
4dd
4r
=123
8r
8b
4gg
4r
=124
8r
8ccc
8gg
8aa
8ccc
8aa#
=125
8r
8aa
8ee
8ff#
8aa
8gg
=126
4gg
4ggg
8r
8aa
=127
4aa#
8r
8cc
8ee#
8cc##
=128
4dd#
8r
8ee#
8cc
8dd#
=129
4dd
8r
8dd
8gg
8ee
=130
4ee#
8r
8gg
8dd
8ee#
=131
4ee
4r
4r
=132
8r
8ccc
8gg
8aa
8ccc
8bb
=133
8r
8ccc
8gg
8aa
8ccc
8bb
=134
8r
8ccc
8gg
8aa
8ccc
8bb
=135
8r
8ccc
8gg
8aa
8ccc
8bb
=136
8r
8ccc#
8gg#
8aa
8ccc#
8bb
=137
8r
8ccc#
8gg#
8aa
8ccc#
8bb
=138
8r
8ccc#
8gg#
8aa
8ccc#
8bb
=139
8r
8ccc#
8gg#
8aa
8ccc#
8bb
=140
8r
8ccc#
8gg#
8aa
8ccc#
8bb
=141
8ee
8ff#
8aa
8gg#
8dd
8ee
=142
8gg#
8ff#
8cc#
8dd
8ff#
8ee
=143
8b
8cc#
8ee
8dd
8a
8b
=144
4cc#
2ccc#
=145
2ff#
4ee
=146
2.dd
=147
2g#
4f#
=148
8r
8B
8f#
8b
8f#
8e
=149
8r
8a
8ee
8aa
8ee
8dd
=150
8r
8dd
8aa
8ddd
8aa
8gg#
=151
8ff#
8ee
8dd#
8dd
8cc#
8b
=152
8r
8c#
8r
8cc#
8a
8c#
=153
8r
8cc#
8g#
8c#
8r
8cc#
=154
8f#
8c#
8e
8cc#
8e
8c#
=155
8e
8b
8dd
8ee
4bb
=156
8r
8c#
8r
8cc#
8a
8c#
=157
8r
8cc#
8g#
8c#
8r
8cc#
=158
8f#
8c#
8e
8cc#
8e
8c#
=159
8e
8cc#
8cc#
8ee
4ccc#
=160
2.ddd
=161
2gg
4ee#
=162
2.dd#
=163
2a
4g
=164
4r
4dd
4ddd[
=165
4ddd]
4gg
4ee#
=166
4r
4ddd#
4dd#[
=167
4dd#]
4a
4dd#[
=168
4dd#]
4dd
4dd
=169
4r
4ee
4ee#
=170
4r
4ee#
4ff#
=171
4r
4gg
4gg#
=172
8aa
8aaa
4r
4a
=173
2gg
4cc#
=174
2dd
4r
=175
2.r
=176
8r
8e
4a
4r
=177
8r
8f#
4dd
4r
=178
8r
8f#
4b
4r
=179
8r
8g#
8ee
8c
8e
8a
=180
8r
8aa
8ee
8ff#
8aa
8gg
=181
8r
8ff#
8cc#
8dd#
8ff#
8ee
=182
4ee
4eee
8r
8f#
=183
4g
8r
8A
8d
8B
=184
8r
8e
4a
4r
=185
8r
8f#
4dd
4r
=186
8r
8f#
4b
4r
=187
8r
8g#
8ee
8c
8e
8a
=188
8r
8aa
8ee
8ff#
8aa
8gg
=189
8r
8bb
8ff#
8gg#
8bb
8aa
=190
4aa
4aaa
8r
8aa
=191
8eee
8aa#
4bb
8r
8bb
=192
4bbb
4bb
8r
8aa#
=193
2aa
4gg
=194
4bb
4b
8r
8a#
=195
2a
4g
=196
4r
4a
4cc
=197
4r
4a#
4b
=198
4r
4a
4cc
=199
4r
4a#
4b
=200
4bb
4b
8r
8a#
=201
2a
4g
=202
4b
4B
8r
8A#
=203
2A
4G
=204
4r
4A
4c
=205
4r
4A#
4B
=206
4r
4c
4d#
=207
4r
4c#
4d
=208
8E#
8F#
8G
8G#
8A
8A#
=209
8B
8c
8c#
8d
8d#
8e
=210
4e#
8A#
8e#
8B
8e#
=211
4d#
8e
8G
8c
8e
=212
4g
8c
8g
8c#
8g
=213
4e#
8f#
8A
8d
8f#
=214
4cc
8e#
8cc
8f#
8cc
=215
4a#
8b
8d
8g
8b
=216
4dd#
8e#
8dd#
8e
8cc#
=217
4b
12A#
12B
12d#
12f#
12a#
12b
=218
4ee#
8a#
8ee#
8b
8ee#
=219
4dd#
8ee
8g
8cc
8ee
=220
4gg
8cc
8gg
8cc#
8gg
=221
4ee#
8ff#
8a
8dd
8ff#
=222
4ccc
8ee#
8ccc
8ff#
8ccc
=223
4aa#
8bb
8dd
8gg
8bb
=224
4ddd#
8dd#
8ddd#
8cc#
8ccc#
=225
8b
8bb
8ff#
8dd#
8b
8cc#
=226
2dd#
4cc#[
=227
4cc#]
4r
4r
=228
8f#
8d
8e
8d#
8A#
8c#
=229
8B
8A#
8c#
8B
8A#
8c#
=230
8B
8A#
4c#
4r
=231
4r
4b
4r
=232
8r
8g#
4ee
4r
=233
8r
8g#
4cc#
4r
=234
8r
8a#
8ff#
8d
8f#
8b
=235
8r
8bb
8ff#
8gg#
8bb
8aa
=236
8r
8gg#
8dd#
8ee#
8gg#
8ff#
=237
4ff#
4fff#
8r
8gg#
=238
4aa
8r
8b
8ee
8cc#
=239
4dd
8r
8ee
8b
8dd
=240
4cc#
8r
8cc#
8ff#
8dd#
=241
4ee
8r
8ff#
8cc#
8ee
=242
4dd
8r
8ff#
8bb
8aa
=243
4gg#
8r
8ff#
8bb
8aa
=244
4gg#
8r
8ff#
8bb
8aa
=245
4gg#
8r
8ff#
8bb
8aa
=246
4gg#
8r
8ff#
8bb
8aa
=247
4gg#
4r
4r
=248
8r
8ee
8gg#
8ff#
8b
8cc#
=249
8ee
8dd
8g#
8a
8cc#
8b
=250
8d
8e
8g#
8f#
8d
8B
=251
4cc#
2ccc#
=252
2ff#
4ee
=253
2.dd
=254
2g#
4f#
=255
8r
8B
8f#
8b
8f#
8e
=256
8r
8a
8ee
8aa
8ee
8dd
=257
8r
8dd
8aa
8ddd
8aa
8gg#
=258
8ff#
8ee
8dd#
8dd
8cc#
8b
=259
8r
8c#
8r
8cc#
8a
8c#
=260
8r
8cc#
8g#
8c#
8r
8cc#
=261
8f#
8c#
8e
8cc#
8e
8c#
=262
8e
8cc#
8cc#
8ee
4ccc#
=263
8r
8d
8r
8dd
8b
8d
=264
8r
8dd
8a
8d
8r
8dd
=265
8g#
8d#
8g#
8dd#
8g#
8d#
=266
8f#
8dd#
8dd#
8ff#
4ddd#
=267
2.eee
=268
2aa
4gg#
=269
2.ff#
=270
2b
4a
=271
4r
4ee
4eee[
=272
4eee]
4aa
4gg#
=273
4r
4fff#
4ff#[
=274
4ff#]
4b
4ff#[
=275
4ff#]
4ee
4ee
=276
4r
2ee[
=277
4ee]
2ee[
=278
4ee]
2ee
=279
2.ee
=280
4r
2ee[
=281
4ee]
2ee[
=282
4ee]
2ee
=283
2.ee
=284
2.r
=285
2.ee
=286
2.r
=287
2.ee
=288
2.r
=289
2.ee
=290
2.r
=291
2.ee
=292
2.r
=293
8e
8f#
8g#
8a
8b
8cc#
=294
8dd
8ee
8ff#
8gg#
8aa
8bb
=295
2.ccc#
=296
2ff#
4ee
=297
4bb[
2bb]
=298
2ee
4dd#
=299
4aa[
2aa]
=300
2dd
4cc#
=301
4ff#[
2ff#]
=302
2a
4g#
=303
2.cc#
=304
2f#
4e
=305
4b[
2b]
=306
2e
4d#
=307
4a[
2a]
=308
2d
4c#
=309
4f#[
2f#]
=310
2A
4G#
=311
4r
8r
8c#
8F#
8E
=312
4r
8r
8f#
8A
8G#
=313
*M3/8
8r
16r
16cc#
16f#
16e
=314
8r
16r
16ff#
16a
16g#
=315
8r
16r
16ccc#
16ff#
16ee
=316
8r
16r
16fff#
16aa
16gg#
=317
8r
16r
16fff#
16aa
16gg#
=318
8r
16r
16fff#
16aa
16gg#
=319
8r
8r
16ff#
16gg#
=320
16aa
16bb
16ccc#
16ddd
16gg#
16aa
=321
16bb
16ccc#
16ddd
16eee
16fff#
16ccc#
=322
16ddd
16eee
16fff#
16ggg#
16aaa
16bbb
=323
16cccc#
16fff#
16eee
16ddd
16gg#
16ff#
=324
16cccc#
16fff#
16eee
16ddd
16gg#
16ff#
=325
16cccc#
16fff#
16eee
16ddd
16gg#
16ff#
=326
16cccc#
16fff#
16eee
16ddd
16gg#
16ff#
=327
16cccc#
16fff#
16eee
16ddd
16gg#
16ff#
=328
16ccc#
16ff#
16ee
16dd
16g#
16f#
=329
16cc#
16f#
16e
16d
16G#
16F#
=330
4.r
=331
8r
8r
16e
16ee
=332
16ccc#
16aaa
8r
8r
==
*-
